bicons/scalable/emblems/notepad.svg

<?xml version="1.0" encoding="UTF-8" standalone="no"?>
<!-- Created with Inkscape (http://www.inkscape.org/) -->

<svg
   xmlns:dc="http://purl.org/dc/elements/1.1/"
   xmlns:cc="http://creativecommons.org/ns#"
   xmlns:rdf="http://www.w3.org/1999/02/22-rdf-syntax-ns#"
   xmlns:svg="http://www.w3.org/2000/svg"
   xmlns="http://www.w3.org/2000/svg"
   xmlns:xlink="http://www.w3.org/1999/xlink"
   xmlns:sodipodi="http://sodipodi.sourceforge.net/DTD/sodipodi-0.dtd"
   xmlns:inkscape="http://www.inkscape.org/namespaces/inkscape"
   width="210mm"
   height="297mm"
   viewBox="0 0 744.09448819 1052.3622047"
   id="svg2"
   version="1.1"
   inkscape:version="0.91 r13725"
   inkscape:export-xdpi="7.1999736"
   inkscape:export-ydpi="7.1999736"
   sodipodi:docname="notepad.svg"
   inkscape:export-filename="C:\Users\johannes\Documents\Arbeit\RRZE\github3\bicons\32x32\emblems\notepad.png">
  <defs
     id="defs4">
    <linearGradient
       inkscape:collect="always"
       xlink:href="#linearGradient4321"
       id="linearGradient4307"
       x1="85.955063"
       y1="389.75742"
       x2="357.13062"
       y2="3.7735848"
       gradientUnits="userSpaceOnUse"
       gradientTransform="translate(188.86412,322.18273)" />
    <linearGradient
       id="linearGradient4321"
       inkscape:collect="always">
      <stop
         id="stop4323"
         offset="0"
         style="stop-color:#4e505d;stop-opacity:1;" />
      <stop
         id="stop4325"
         offset="1"
         style="stop-color:#7a8597;stop-opacity:1" />
    </linearGradient>
  </defs>
  <sodipodi:namedview
     id="base"
     pagecolor="#ffffff"
     bordercolor="#666666"
     borderopacity="1.0"
     inkscape:pageopacity="0.0"
     inkscape:pageshadow="2"
     inkscape:zoom="0.70710678"
     inkscape:cx="480.55285"
     inkscape:cy="427.35983"
     inkscape:document-units="px"
     inkscape:current-layer="layer1"
     showgrid="false"
     showguides="true"
     inkscape:guide-bbox="true"
     inkscape:window-width="1366"
     inkscape:window-height="721"
     inkscape:window-x="-4"
     inkscape:window-y="-4"
     inkscape:window-maximized="1"
     inkscape:snap-bbox="true"
     inkscape:bbox-paths="true"
     inkscape:bbox-nodes="true"
     inkscape:snap-nodes="false"
     inkscape:snap-global="true">
    <sodipodi:guide
       position="315.53572,730.17859"
       orientation="0,1"
       id="guide3338" />
    <sodipodi:guide
       position="351.25,330.17858"
       orientation="0,1"
       id="guide3340" />
    <sodipodi:guide
       position="189.10714,408.8393"
       orientation="1,0"
       id="guide3344" />
    <sodipodi:guide
       position="589.04521,660.00001"
       orientation="1,0"
       id="guide3346" />
    <inkscape:grid
       type="xygrid"
       id="grid3440" />
    <sodipodi:guide
       position="589.04521,378.30213"
       orientation="1,0"
       id="guide3411" />
  </sodipodi:namedview>
  <metadata
     id="metadata7">
    <rdf:RDF>
      <cc:Work
         rdf:about="">
        <dc:format>image/svg+xml</dc:format>
        <dc:type
           rdf:resource="http://purl.org/dc/dcmitype/StillImage" />
        <dc:title>notepad</dc:title>
        <dc:date>June 2015</dc:date>
        <dc:creator>
          <cc:Agent>
            <dc:title>Johannes Hechler</dc:title>
          </cc:Agent>
        </dc:creator>
        <dc:rights>
          <cc:Agent>
            <dc:title>Johannes Hechler</dc:title>
          </cc:Agent>
        </dc:rights>
        <dc:publisher>
          <cc:Agent>
            <dc:title>RRZE</dc:title>
          </cc:Agent>
        </dc:publisher>
        <dc:contributor>
          <cc:Agent>
            <dc:title>Ute Weber, Hendrik Eggers, Joanna Barbach</dc:title>
          </cc:Agent>
        </dc:contributor>
        <cc:license
           rdf:resource="http://creativecommons.org/licenses/by-sa/3.0/" />
        <dc:subject>
          <rdf:Bag>
            <rdf:li>notepad</rdf:li>
            <rdf:li>notes</rdf:li>
            <rdf:li>pen</rdf:li>
            <rdf:li>writing</rdf:li>
            <rdf:li>student</rdf:li>
          </rdf:Bag>
        </dc:subject>
      </cc:Work>
      <cc:License
         rdf:about="http://creativecommons.org/licenses/by-sa/3.0/">
        <cc:permits
           rdf:resource="http://creativecommons.org/ns#Reproduction" />
        <cc:permits
           rdf:resource="http://creativecommons.org/ns#Distribution" />
        <cc:requires
           rdf:resource="http://creativecommons.org/ns#Notice" />
        <cc:requires
           rdf:resource="http://creativecommons.org/ns#Attribution" />
        <cc:permits
           rdf:resource="http://creativecommons.org/ns#DerivativeWorks" />
        <cc:requires
           rdf:resource="http://creativecommons.org/ns#ShareAlike" />
      </cc:License>
    </rdf:RDF>
  </metadata>
  <g
     inkscape:label="Ebene 1"
     inkscape:groupmode="layer"
     id="layer1">
    <g
       id="g4249">
      <rect
         inkscape:export-ydpi="4.9521332"
         inkscape:export-xdpi="4.9521332"
         inkscape:export-filename="C:\Users\johannes\Desktop\g4274a.png"
         ry="9.0899897"
         y="322.18362"
         x="189.04375"
         height="400"
         width="400.00146"
         id="rect4212"
         style="color:#000000;clip-rule:nonzero;display:inline;overflow:visible;visibility:visible;opacity:1;isolation:auto;mix-blend-mode:normal;color-interpolation:sRGB;color-interpolation-filters:linearRGB;solid-color:#000000;solid-opacity:1;fill:none;fill-opacity:1;fill-rule:evenodd;stroke:none;stroke-width:36;stroke-linecap:butt;stroke-linejoin:round;stroke-miterlimit:4;stroke-dasharray:none;stroke-dashoffset:0;stroke-opacity:1;color-rendering:auto;image-rendering:auto;shape-rendering:auto;text-rendering:auto;enable-background:accumulate" />
      <path
         id="rect4244"
         d="m 279.76366,322.18359 c -10.07172,0 -18.17969,8.10797 -18.17969,18.17969 l 0,36.35938 c 0,10.07172 8.10797,18.18164 18.17969,18.18164 10.07172,0 18.17969,-8.10992 18.17969,-18.18164 l 0,-36.35938 c 0,-10.07172 -8.10797,-18.17969 -18.17969,-18.17969 z m 109.08008,0 c -10.07172,0 -18.17969,8.10992 -18.17969,18.18164 l 0,36.35743 c 0,10.07172 8.10797,18.18164 18.17969,18.18164 10.07172,0 18.17969,-8.10992 18.17969,-18.18164 l 0,-36.35743 c 0,-10.07172 -8.10797,-18.18164 -18.17969,-18.18164 z m 109.08008,0 c -10.07172,0 -18.17969,8.10993 -18.17969,18.18164 l 0,36.35743 c 0,10.07172 8.10797,18.18164 18.17969,18.18164 10.07171,0 18.17969,-8.10992 18.17969,-18.18164 l 0,-36.35743 c 0,-10.07171 -8.10798,-18.18164 -18.17969,-18.18164 z m -263.61133,36.35938 c -5.03586,0 -9.08984,4.05398 -9.08984,9.08984 l 0,345.46094 c 0,5.03585 4.05398,9.08984 9.08984,9.08984 l 117.35156,0 5.4336,0 a 18.0018,18.0018 0 0 1 -0.004,-0.0898 l 0.25,-50.32813 a 18.0018,18.0018 0 0 1 19.97461,-17.75976 18.0018,18.0018 0 0 1 2.21094,-0.13086 18.0018,18.0018 0 0 1 2.08008,-8.59375 18.0018,18.0018 0 0 1 0.91601,-1.54883 18.0018,18.0018 0 0 1 0.88477,-1.20312 18.0018,18.0018 0 0 1 0.1914,-0.25782 18.0018,18.0018 0 0 1 1.19532,-1.32421 L 493.87694,531.86719 a 18.0018,18.0018 0 0 1 1.28711,-1.16016 18.0018,18.0018 0 0 1 0.88086,-0.65625 18.0018,18.0018 0 0 1 0.58008,-0.42578 18.0018,18.0018 0 0 1 0.83789,-0.5 18.0018,18.0018 0 0 1 0.70508,-0.41797 18.0018,18.0018 0 0 1 0.88086,-0.41211 18.0018,18.0018 0 0 1 0.75781,-0.34961 18.0018,18.0018 0 0 1 0.83789,-0.29492 18.0018,18.0018 0 0 1 0.85938,-0.29687 18.0018,18.0018 0 0 1 1.0039,-0.24414 18.0018,18.0018 0 0 1 0.73438,-0.17383 18.0018,18.0018 0 0 1 0.98633,-0.13867 18.0018,18.0018 0 0 1 0.80664,-0.10938 18.0018,18.0018 0 0 1 1.7539,-0.0664 18.0018,18.0018 0 0 1 0.0664,-1.7539 18.0018,18.0018 0 0 1 0.13476,-0.9961 18.0018,18.0018 0 0 1 0.11329,-0.80664 18.0018,18.0018 0 0 1 0.15625,-0.65234 18.0018,18.0018 0 0 1 0.26562,-1.09961 18.0018,18.0018 0 0 1 0.20313,-0.57617 18.0018,18.0018 0 0 1 0.39453,-1.12305 18.0018,18.0018 0 0 1 0.40429,-0.86914 18.0018,18.0018 0 0 1 0.34571,-0.73828 18.0018,18.0018 0 0 1 0.59179,-0.99805 18.0018,18.0018 0 0 1 0.33399,-0.55859 18.0018,18.0018 0 0 1 0.45703,-0.6211 18.0018,18.0018 0 0 1 0.625,-0.84179 18.0018,18.0018 0 0 1 1.17578,-1.29883 l 18.18164,-18.17969 a 18.0018,18.0018 0 0 1 0.74805,-0.67773 18.0018,18.0018 0 0 1 0.70117,-0.61328 18.0018,18.0018 0 0 1 0.66016,-0.48828 18.0018,18.0018 0 0 1 0.79101,-0.56446 18.0018,18.0018 0 0 1 0.78125,-0.46289 18.0018,18.0018 0 0 1 0.76172,-0.43555 18.0018,18.0018 0 0 1 0.83789,-0.39062 18.0018,18.0018 0 0 1 0.80078,-0.35938 18.0018,18.0018 0 0 1 0.85157,-0.29687 18.0018,18.0018 0 0 1 0.85742,-0.28516 18.0018,18.0018 0 0 1 0.90234,-0.21484 18.0018,18.0018 0 0 1 0.83398,-0.1875 18.0018,18.0018 0 0 1 0.91602,-0.125 18.0018,18.0018 0 0 1 0.88672,-0.10742 18.0018,18.0018 0 0 1 0.87305,-0.0312 18.0018,18.0018 0 0 1 1.04882,-0.0215 18.0018,18.0018 0 0 1 1.03907,0.0899 18.0018,18.0018 0 0 1 1.14258,0.12304 l -0.0176,-0.0215 c 0.12044,0.0182 0.22746,0.0633 0.34765,0.082 a 18.0018,18.0018 0 0 1 1.04493,0.23242 18.0018,18.0018 0 0 1 1.03906,0.25196 c 0.78081,0.14395 1.55268,0.30481 2.32031,0.47461 0.68977,0.14895 1.37218,0.31197 2.05273,0.47851 10e-4,3e-4 0.003,-3e-4 0.004,0 l 0,-2.12695 0,-122.19727 c 0,-5.03586 -4.05399,-9.08984 -9.08984,-9.08984 l -9.26953,0 0,18.17969 c 0,19.732 -16.44536,36.18164 -36.17969,36.18164 -19.73433,0 -36.17969,-16.44964 -36.17969,-36.18164 l 0,-18.17969 -36.7207,0 0,18.17969 c 0,19.732 -16.44537,36.18164 -36.17969,36.18164 -19.73433,0 -36.17969,-16.44964 -36.17969,-36.18164 l 0,-18.17969 -36.7207,0 0,18.17969 c 0,19.732 -16.44536,36.18164 -36.17969,36.18164 -19.73432,0 -36.17969,-16.44964 -36.17969,-36.18164 l 0,-18.17969 -9.27148,0 z m 272.29102,211.50781 -83.62305,83.625 20.58789,20.58594 83.62305,-83.62305 -20.58789,-20.58789 z m 45.85937,46.22656 -96.16601,96.16797 a 18.0018,18.0018 0 0 1 -0.80079,0.72266 18.0018,18.0018 0 0 1 -0.71093,0.61133 18.0018,18.0018 0 0 1 -0.70313,0.51758 18.0018,18.0018 0 0 1 -0.76367,0.53515 18.0018,18.0018 0 0 1 -0.69922,0.41211 18.0018,18.0018 0 0 1 -0.88867,0.49609 18.0018,18.0018 0 0 1 -0.66797,0.3086 18.0018,18.0018 0 0 1 -0.95898,0.41797 18.0018,18.0018 0 0 1 -0.76172,0.26367 18.0018,18.0018 0 0 1 -0.94336,0.30273 18.0018,18.0018 0 0 1 -0.75782,0.18164 18.0018,18.0018 0 0 1 -1.01171,0.21485 18.0018,18.0018 0 0 1 -0.72266,0.0976 18.0018,18.0018 0 0 1 -1.07813,0.11914 18.0018,18.0018 0 0 1 -0.60156,0.0215 18.0018,18.0018 0 0 1 -0.8457,0.0312 18.0018,18.0018 0 0 1 -0.13281,2.19922 18.0018,18.0018 0 0 1 0.10547,2.28515 l 5.28906,0 94.73047,0 c 5.03585,0 9.08984,-4.05399 9.08984,-9.08984 l 0,-91.33984 0,-5.47657 z"
         style="color:#000000;clip-rule:nonzero;display:inline;overflow:visible;visibility:visible;opacity:1;isolation:auto;mix-blend-mode:normal;color-interpolation:sRGB;color-interpolation-filters:linearRGB;solid-color:#000000;solid-opacity:1;fill:url(#linearGradient4307);fill-opacity:1;fill-rule:evenodd;stroke:none;stroke-width:36;stroke-linecap:butt;stroke-linejoin:round;stroke-miterlimit:4;stroke-dasharray:none;stroke-dashoffset:0;stroke-opacity:1;color-rendering:auto;image-rendering:auto;shape-rendering:auto;text-rendering:auto;enable-background:accumulate"
         inkscape:connector-curvature="0" />
      <path
         sodipodi:nodetypes="ssssssssssccsscssccccccccccc"
         inkscape:connector-curvature="0"
         id="rect4261"
         d="m 270.67467,467.62218 c -5.03586,0 -9.08985,4.05399 -9.08985,9.08985 0,5.03585 4.05399,9.08984 9.08985,9.08984 l 218.16015,0 c 5.03586,0 9.08985,-4.05399 9.08985,-9.08984 0,-5.03586 -4.05399,-9.08985 -9.08985,-9.08985 z m 0,72.72071 c -5.03584,0 -9.08985,4.05401 -9.08985,9.08984 0,5.03583 4.05401,9.08984 9.08985,9.08984 l 170.1582,0 13.44727,-13.44726 c -1.53857,-2.82428 -4.53141,-4.73242 -7.98633,-4.73242 z m 0,72.71875 c -5.03584,0 -9.08985,4.05596 -9.08985,9.09179 0,5.03584 4.05401,9.08985 9.08985,9.08985 l 99.19726,0 c 1.50892,-2.63031 3.33116,-5.08958 5.51172,-7.27149 l 0.004,-0.004 10.90625,-10.90625 -115.61914,0 z m 205.4414,0 -18.18164,18.18164 7.25781,0 18.18165,-18.18164 z"
         style="color:#000000;clip-rule:nonzero;display:inline;overflow:visible;visibility:visible;opacity:1;isolation:auto;mix-blend-mode:normal;color-interpolation:sRGB;color-interpolation-filters:linearRGB;solid-color:#000000;solid-opacity:1;fill:#ffffff;fill-opacity:1;fill-rule:evenodd;stroke:none;stroke-width:36;stroke-linecap:butt;stroke-linejoin:round;stroke-miterlimit:4;stroke-dasharray:none;stroke-dashoffset:0;stroke-opacity:1;color-rendering:auto;image-rendering:auto;shape-rendering:auto;text-rendering:auto;enable-background:accumulate" />
      <path
         inkscape:connector-curvature="0"
         id="path4176"
         d="m 542.965,508.23556 -18.18126,18.18007 46.04394,46.04252 18.21752,-18.18287 c -3.76735,-25.30435 -19.31105,-41.99516 -46.08023,-46.03921 z m -36.36094,36.35975 -109.08008,109.08009 46.04393,46.04252 109.07851,-109.0797 -46.04241,-46.04241 z m -131.25977,127.25977 -0.25152,50.32855 50.29254,-0.24848 z"
         style="fill:#99b000;fill-rule:evenodd;stroke:none;stroke-width:1px;stroke-linecap:butt;stroke-linejoin:miter;stroke-opacity:1"
         sodipodi:nodetypes="cccccccccccccccc" />
    </g>
  </g>
</svg>

<?xml version="1.0" encoding="UTF-8" standalone="no"?>
<!-- Created with Inkscape (http://www.inkscape.org/) -->

<svg
   xmlns:dc="http://purl.org/dc/elements/1.1/"
   xmlns:cc="http://creativecommons.org/ns#"
   xmlns:rdf="http://www.w3.org/1999/02/22-rdf-syntax-ns#"
   xmlns:svg="http://www.w3.org/2000/svg"
   xmlns="http://www.w3.org/2000/svg"
   xmlns:xlink="http://www.w3.org/1999/xlink"
   xmlns:sodipodi="http://sodipodi.sourceforge.net/DTD/sodipodi-0.dtd"
   xmlns:inkscape="http://www.inkscape.org/namespaces/inkscape"
   width="210mm"
   height="297mm"
   viewBox="0 0 744.09448819 1052.3622047"
   id="svg2"
   version="1.1"
   inkscape:version="0.91 r13725"
   inkscape:export-xdpi="7.1999736"
   inkscape:export-ydpi="7.1999736"
   sodipodi:docname="notepad.svg"
   inkscape:export-filename="C:\Users\johannes\Documents\Arbeit\RRZE\github3\bicons\32x32\emblems\notepad.png">
  <defs
     id="defs4">
    <linearGradient
       inkscape:collect="always"
       xlink:href="#linearGradient4321"
       id="linearGradient4307"
       x1="85.955063"
       y1="389.75742"
       x2="357.13062"
       y2="3.7735848"
       gradientUnits="userSpaceOnUse"
       gradientTransform="translate(188.86412,322.18273)" />
    <linearGradient
       id="linearGradient4321"
       inkscape:collect="always">
      <stop
         id="stop4323"
         offset="0"
         style="stop-color:#4e505d;stop-opacity:1;" />
      <stop
         id="stop4325"
         offset="1"
         style="stop-color:#7a8597;stop-opacity:1" />
    </linearGradient>
  </defs>
  <sodipodi:namedview
     id="base"
     pagecolor="#ffffff"
     bordercolor="#666666"
     borderopacity="1.0"
     inkscape:pageopacity="0.0"
     inkscape:pageshadow="2"
     inkscape:zoom="0.70710678"
     inkscape:cx="336.30307"
     inkscape:cy="481.09995"
     inkscape:document-units="px"
     inkscape:current-layer="layer1"
     showgrid="false"
     showguides="true"
     inkscape:guide-bbox="true"
     inkscape:window-width="1366"
     inkscape:window-height="721"
     inkscape:window-x="-4"
     inkscape:window-y="-4"
     inkscape:window-maximized="1"
     inkscape:snap-bbox="true"
     inkscape:bbox-paths="true"
     inkscape:bbox-nodes="true"
     inkscape:snap-nodes="false"
     inkscape:snap-global="true">
    <sodipodi:guide
       position="315.53572,730.17859"
       orientation="0,1"
       id="guide3338" />
    <sodipodi:guide
       position="351.25,330.17858"
       orientation="0,1"
       id="guide3340" />
    <sodipodi:guide
       position="189.10714,408.8393"
       orientation="1,0"
       id="guide3344" />
    <sodipodi:guide
       position="589.04521,660.00001"
       orientation="1,0"
       id="guide3346" />
    <inkscape:grid
       type="xygrid"
       id="grid3440" />
    <sodipodi:guide
       position="589.04521,378.30213"
       orientation="1,0"
       id="guide3411" />
  </sodipodi:namedview>
  <metadata
     id="metadata7">
    <rdf:RDF>
      <cc:Work
         rdf:about="">
        <dc:format>image/svg+xml</dc:format>
        <dc:type
           rdf:resource="http://purl.org/dc/dcmitype/StillImage" />
        <dc:title>notepad</dc:title>
        <dc:date>June 2015</dc:date>
        <dc:creator>
          <cc:Agent>
            <dc:title>Johannes Hechler</dc:title>
          </cc:Agent>
        </dc:creator>
        <dc:rights>
          <cc:Agent>
            <dc:title>Johannes Hechler</dc:title>
          </cc:Agent>
        </dc:rights>
        <dc:publisher>
          <cc:Agent>
            <dc:title>RRZE</dc:title>
          </cc:Agent>
        </dc:publisher>
        <dc:contributor>
          <cc:Agent>
            <dc:title>Ute Weber, Hendrik Eggers, Joanna Barbach</dc:title>
          </cc:Agent>
        </dc:contributor>
        <cc:license
           rdf:resource="http://creativecommons.org/licenses/by-sa/3.0/" />
        <dc:subject>
          <rdf:Bag>
            <rdf:li>notepad</rdf:li>
            <rdf:li>notes</rdf:li>
            <rdf:li>pen</rdf:li>
            <rdf:li>writing</rdf:li>
            <rdf:li>student</rdf:li>
          </rdf:Bag>
        </dc:subject>
      </cc:Work>
      <cc:License
         rdf:about="http://creativecommons.org/licenses/by-sa/3.0/">
        <cc:permits
           rdf:resource="http://creativecommons.org/ns#Reproduction" />
        <cc:permits
           rdf:resource="http://creativecommons.org/ns#Distribution" />
        <cc:requires
           rdf:resource="http://creativecommons.org/ns#Notice" />
        <cc:requires
           rdf:resource="http://creativecommons.org/ns#Attribution" />
        <cc:permits
           rdf:resource="http://creativecommons.org/ns#DerivativeWorks" />
        <cc:requires
           rdf:resource="http://creativecommons.org/ns#ShareAlike" />
      </cc:License>
    </rdf:RDF>
  </metadata>
  <g
     inkscape:label="Ebene 1"
     inkscape:groupmode="layer"
     id="layer1">
    <g
       id="g4170">
      <rect
         inkscape:export-ydpi="4.9521332"
         inkscape:export-xdpi="4.9521332"
         inkscape:export-filename="C:\Users\johannes\Desktop\g4274a.png"
         ry="9.0899897"
         y="322.18362"
         x="189.04375"
         height="400"
         width="400.00146"
         id="rect4212"
         style="color:#000000;clip-rule:nonzero;display:inline;overflow:visible;visibility:visible;opacity:1;isolation:auto;mix-blend-mode:normal;color-interpolation:sRGB;color-interpolation-filters:linearRGB;solid-color:#000000;solid-opacity:1;fill:none;fill-opacity:1;fill-rule:evenodd;stroke:none;stroke-width:36;stroke-linecap:butt;stroke-linejoin:round;stroke-miterlimit:4;stroke-dasharray:none;stroke-dashoffset:0;stroke-opacity:1;color-rendering:auto;image-rendering:auto;shape-rendering:auto;text-rendering:auto;enable-background:accumulate" />
      <path
         id="rect4244"
         d="M 279.76367 322.18359 C 269.69195 322.18359 261.58398 330.29156 261.58398 340.36328 L 261.58398 376.72266 C 261.58398 386.79438 269.69195 394.9043 279.76367 394.9043 C 289.83539 394.9043 297.94336 386.79438 297.94336 376.72266 L 297.94336 340.36328 C 297.94336 330.29156 289.83539 322.18359 279.76367 322.18359 z M 388.84375 322.18359 C 378.77203 322.18359 370.66406 330.29351 370.66406 340.36523 L 370.66406 376.72266 C 370.66406 386.79438 378.77203 394.9043 388.84375 394.9043 C 398.91547 394.9043 407.02344 386.79438 407.02344 376.72266 L 407.02344 340.36523 C 407.02344 330.29351 398.91547 322.18359 388.84375 322.18359 z M 497.92383 322.18359 C 487.85211 322.18359 479.74414 330.29352 479.74414 340.36523 L 479.74414 376.72266 C 479.74414 386.79438 487.85211 394.9043 497.92383 394.9043 C 507.99554 394.9043 516.10352 386.79438 516.10352 376.72266 L 516.10352 340.36523 C 516.10352 330.29352 507.99554 322.18359 497.92383 322.18359 z M 234.3125 358.54297 C 229.27664 358.54297 225.22266 362.59695 225.22266 367.63281 L 225.22266 713.09375 C 225.22266 718.1296 229.27664 722.18359 234.3125 722.18359 L 351.66406 722.18359 L 354.24219 722.18359 A 18.0018 18.0018 0 0 1 354.23828 722.08594 L 354.50586 672.83789 A 18.0018 18.0018 0 0 1 367.70312 655.61719 A 18.0018 18.0018 0 0 1 368.89062 655.09766 A 18.0018 18.0018 0 0 1 372.72461 649.38672 L 488.67969 533.43164 A 18.0018 18.0018 0 0 1 496.93945 528.74609 A 18.0018 18.0018 0 0 1 501.62695 520.48438 L 527.33398 494.7793 A 18.0018 18.0018 0 0 1 540.52734 489.51562 A 18.0018 18.0018 0 0 1 542.76758 489.73242 L 542.75 489.71094 C 543.20653 489.77991 543.64076 489.89265 544.09375 489.96875 C 546.95862 490.45017 549.74561 491.08401 552.46289 491.8418 L 552.46289 489.83008 L 552.46289 367.63281 C 552.46289 362.59695 548.4089 358.54297 543.37305 358.54297 L 534.10352 358.54297 L 534.10352 376.72266 C 534.10352 396.45466 517.65816 412.9043 497.92383 412.9043 C 478.1895 412.9043 461.74414 396.45466 461.74414 376.72266 L 461.74414 358.54297 L 425.02344 358.54297 L 425.02344 376.72266 C 425.02344 396.45466 408.57807 412.9043 388.84375 412.9043 C 369.10942 412.9043 352.66406 396.45466 352.66406 376.72266 L 352.66406 358.54297 L 315.94336 358.54297 L 315.94336 376.72266 C 315.94336 396.45466 299.498 412.9043 279.76367 412.9043 C 260.02935 412.9043 243.58398 396.45466 243.58398 376.72266 L 243.58398 358.54297 L 234.3125 358.54297 z M 503.22461 573.43164 L 422.98047 653.67578 L 443.56836 674.26172 L 523.8125 594.01953 L 503.22461 573.43164 z M 552.46289 618.44922 L 448.73047 722.18359 L 543.37305 722.18359 C 548.4089 722.18359 552.46289 718.1296 552.46289 713.09375 L 552.46289 621.75391 L 552.46289 618.44922 z "
         style="color:#000000;clip-rule:nonzero;display:inline;overflow:visible;visibility:visible;opacity:1;isolation:auto;mix-blend-mode:normal;color-interpolation:sRGB;color-interpolation-filters:linearRGB;solid-color:#000000;solid-opacity:1;fill:url(#linearGradient4307);fill-opacity:1;fill-rule:evenodd;stroke:none;stroke-width:36;stroke-linecap:butt;stroke-linejoin:round;stroke-miterlimit:4;stroke-dasharray:none;stroke-dashoffset:0;stroke-opacity:1;color-rendering:auto;image-rendering:auto;shape-rendering:auto;text-rendering:auto;enable-background:accumulate" />
      <path
         sodipodi:nodetypes="ssssssssssccsscssccccccccccc"
         inkscape:connector-curvature="0"
         id="rect4261"
         d="m 270.67467,467.62218 c -5.03586,0 -9.08985,4.05399 -9.08985,9.08985 0,5.03585 4.05399,9.08984 9.08985,9.08984 l 218.16015,0 c 5.03586,0 9.08985,-4.05399 9.08985,-9.08984 0,-5.03586 -4.05399,-9.08985 -9.08985,-9.08985 z m 0,72.72071 c -5.03584,0 -9.08985,4.05401 -9.08985,9.08984 0,5.03583 4.05401,9.08984 9.08985,9.08984 l 170.1582,0 13.44727,-13.44726 c -1.53857,-2.82428 -4.53141,-4.73242 -7.98633,-4.73242 z m 0,72.71875 c -5.03584,0 -9.08985,4.05596 -9.08985,9.09179 0,5.03584 4.05401,9.08985 9.08985,9.08985 l 99.19726,0 c 1.50892,-2.63031 3.33116,-5.08958 5.51172,-7.27149 l 0.004,-0.004 10.90625,-10.90625 -115.61914,0 z m 205.4414,0 -18.18164,18.18164 7.25781,0 18.18165,-18.18164 z"
         style="color:#000000;clip-rule:nonzero;display:inline;overflow:visible;visibility:visible;opacity:1;isolation:auto;mix-blend-mode:normal;color-interpolation:sRGB;color-interpolation-filters:linearRGB;solid-color:#000000;solid-opacity:1;fill:#ffffff;fill-opacity:1;fill-rule:evenodd;stroke:none;stroke-width:36;stroke-linecap:butt;stroke-linejoin:round;stroke-miterlimit:4;stroke-dasharray:none;stroke-dashoffset:0;stroke-opacity:1;color-rendering:auto;image-rendering:auto;shape-rendering:auto;text-rendering:auto;enable-background:accumulate" />
      <path
         inkscape:connector-curvature="0"
         id="path4176"
         d="m 540.06077,507.50764 -25.7053,25.70403 48.94589,48.94439 25.74385,-25.70702 c -4.00479,-26.89917 -20.52814,-44.64193 -48.98447,-48.94086 z m -38.65261,38.65135 -115.95493,115.95494 48.94588,48.94438 115.95326,-115.95453 -48.94427,-48.94426 z m -128.90226,126.7762 -0.26737,49.24844 49.21016,-0.26414 z"
         style="fill:#99b000;fill-rule:evenodd;stroke:none;stroke-width:1px;stroke-linecap:butt;stroke-linejoin:miter;stroke-opacity:1"
         sodipodi:nodetypes="cccccccccccccccc" />
    </g>
  </g>
</svg>
